svg/300/outlined/move_up-fill.svg

<svg xmlns="http://www.w3.org/2000/svg" width="48" height="48" viewBox="0 -960 960 960"><path d="M328.847-180.001q-109.692 0-186.961-75.346Q64.617-330.693 64.617-440q0-112.615 83.308-185.576t196.23-68.5l-89.461-89.077 32.614-32.614 145.768 145.768-145.768 145.768-32.614-32.615 92.846-92.846q-95.077-2-166.308 57.769T110.001-440q0 90.535 64.192 152.575 64.192 62.04 155.038 62.04h100.768v45.384H328.847Zm201.154-343.845v-256.153h329.998v256.153H530.001Zm0 343.845v-256.153h329.998v256.153H530.001Zm45.383-45.384h239.231V-390.77H575.384v165.385Z"/></svg>

<svg xmlns="http://www.w3.org/2000/svg" width="48" height="48" viewBox="0 -960 960 960"><path d="M328.85-180q-109.69 0-186.96-75.35Q64.62-330.69 64.62-440q0-112.61 83.3-185.58 83.31-72.96 196.24-68.5l-89.47-89.07 32.62-32.62L433.08-670 287.31-524.23l-32.62-32.62 92.85-92.84q-95.08-2-166.31 57.77T110-440q0 90.53 64.19 152.57 64.2 62.04 155.04 62.04H430V-180H328.85ZM530-523.85V-780h330v256.15H530ZM530-180v-256.15h330V-180H530Zm45.38-45.39h239.23v-165.38H575.38v165.38Z"/></svg>
